components/icon/svg/24/av_volume-down.svg

<?xml version="1.0" encoding="UTF-8"?>
<svg width="24px" height="24px" viewBox="0 0 24 24" version="1.1" xmlns="http://www.w3.org/2000/svg" xmlns:xlink="http://www.w3.org/1999/xlink">
    <!-- Generator: Sketch 64 (93537) - https://sketch.com -->
    <title>ic-db_av_volume-down_24</title>
    <desc>Created with Sketch.</desc>
    <g id="Symbols" stroke="none" stroke-width="1" fill="none" fill-rule="evenodd">
        <g id="24dp-Icon/AV/Volume-Down" fill="#282D37">
            <path d="M11,5 C11.5625,5 12,5.4688 12,6 L12,18 C12,18.5625 11.5625,19 11,19 C10.8125,19 10.5938,18.9688 10.4375,18.8438 L6.1875,15.9688 L4.5,15.9688 C3.125,15.9688 2,14.875 2,13.4688 L2,10.5 C2,9.0938 3.125,8 4.5,8 L6.1875,8 L10.4375,5.1562 C10.625,5.0625 10.8125,5 11,5 Z M15,7 C15.1875,7 15.4062,7.0625 15.5625,7.1875 C17.125,8.25 18,10.0938 18,11.9688 C18,13.9062 17.125,15.75 15.5625,16.8125 C15.4062,16.9375 15.1875,17 15,17 C14.4375,17 14,16.5312 14,16 C14,15.6875 14.1562,15.375 14.4375,15.1562 C15.4688,14.4375 16,13.25 16,12 C16,10.7188 15.4688,9.5312 14.4375,8.8125 C14.1562,8.625 14,8.3125 14,8 C14,7.4375 14.4688,7 15,7 Z M10,7.875 L7.0625,9.8125 C6.9062,9.9375 6.6875,10 6.5,10 L4.5,10 C4.2188,10 4,10.2188 4,10.4688 L4,13.4688 C4,13.75 4.2188,13.9688 4.5,13.9688 L6.5,13.9688 C6.6875,13.9688 6.9062,14.0625 7.0625,14.1562 L10,16.125 L10,7.875 Z" id="🎨-Color"></path>
        </g>
    </g>
</svg>

<svg width="24" height="24" xmlns="http://www.w3.org/2000/svg"><path d="M11 5c.563 0 1 .469 1 1v12c0 .563-.438 1-1 1-.188 0-.406-.031-.563-.156l-4.25-2.875H4.5a2.487 2.487 0 01-2.5-2.5V10.5C2 9.094 3.125 8 4.5 8h1.688l4.25-2.844C10.624 5.063 10.812 5 11 5zm4 2c.188 0 .406.063.563.188C17.125 8.25 18 10.094 18 11.968c0 1.938-.875 3.782-2.438 4.845A.936.936 0 0115 17c-.563 0-1-.469-1-1 0-.313.156-.625.438-.844C15.467 14.437 16 13.25 16 12c0-1.281-.531-2.469-1.563-3.188A.982.982 0 0114 8c0-.563.469-1 1-1zm-5 .875L7.062 9.813A.936.936 0 016.5 10h-2c-.281 0-.5.219-.5.469v3c0 .281.219.5.5.5h2c.188 0 .406.094.563.187L10 16.125v-8.25z" fill="#282D37" fill-rule="evenodd"/></svg>
